resources/icons/svg_part.svg

<?xml version="1.0" encoding="utf-8"?>
<!-- Generator: Adobe Illustrator 25.0.0, SVG Export Plug-In . SVG Version: 6.00 Build 0)  -->
<svg version="1.1" id="图层_1" xmlns="http://www.w3.org/2000/svg" xmlns:xlink="http://www.w3.org/1999/xlink" x="0px" y="0px"
	 width="16px" height="16px" viewBox="0 0 16 16" enable-background="new 0 0 16 16" xml:space="preserve">
<path fill="#808080" d="M6,0C4,0,3,1,3,3v5h1V3c0-1.3,0.7-2,2-2h7c1.3,0,2,0.7,2,2h1c0-2-1-3-3-3H6z M6,4L5,5v1l1,1h1v1H5v1h2l1-1V7
	L7,6H6V5h2V4H6z M9,4v4h1V4H9z M10,8v1h1V8H10z M11,8h1V4h-1V8z M14.5,4c-1,0-1.5,0.6-1.5,1.5v2C13,8.4,13.7,9,14.5,9H16V7h-1v1
	h-0.5C14.3,8,14,7.8,14,7.5v-2C14,5,14.3,5,14.5,5H16V4H14.5z M15,10c0,1.3-0.7,2-2,2H8v1h5c2,0,3-1,3-3H15z"/>
<path fill="#4479FB" d="M3.5,9C3,9,3,9.5,3,10v2H1c-0.5,0-1,0-1,0.5S0.5,13,1,13h2v2c0,0.5,0,1,0.5,1S4,15.5,4,15v-2h2
	c0.5,0,1,0,1-0.5S6.5,12,6,12H4v-2C4,9.5,4,9,3.5,9z"/>
</svg>

<svg xmlns="http://www.w3.org/2000/svg" viewBox="0 0 16 16" width="16px" height="16px">
<path fill="#808080" d="M 6,0 C 4,0 3,1 3,3 V 8 H 4 V 3 C 4,1.7 4.7,1 6,1 h 7 c 1.3,0 2,0.7 2,2 h 1 C 16,1 15,0 13,0 Z M 6,4 5,5 V 6 L 6,7 H 7 V 8 H 5 V 9 H 7 L 8,8 V 7 L 7,6 H 6 V 5 H 8 V 4 Z m 3,0 v 4 h 1 V 4 Z m 1,4 v 1 h 1 V 8 Z m 1,0 h 1 V 4 H 11 Z M 14.5,4 C 13.5,4 13,4.6 13,5.5 v 2 C 13,8.4 13.7,9 14.5,9 H 16 V 7 H 15 V 8 H 14.5 C 14.3,8 14,7.8 14,7.5 v -2 C 14,5 14.3,5 14.5,5 H 16 V 4 Z m 0.5,6 c 0,1.3 -0.7,2 -2,2 H 8 v 1 h 5 c 2,0 3,-1 3,-3 z" />
<path fill="#ed6b21" d="M 3.5,9 C 3,9 3,9.5 3,10 v 2 H 1 C 0.5,12 0,12 0,12.5 0,13 0.5,13 1,13 h 2 v 2 c 0,0.5 0,1 0.5,1 C 4,16 4,15.5 4,15 V 13 H 6 C 6.5,13 7,13 7,12.5 7,12 6.5,12 6,12 H 4 V 10 C 4,9.5 4,9 3.5,9 Z" />
</svg>
